X:13001
T:Maggie in the Woods
R:Polka
C:Trad.
O:Ireland
M:4/4
L:1/8
Q:1/4=160
K:G
"G"G2D2 G3A|B2d2 "Em"e4|"G"d2B2 BAGA|B2A2 "D"A2BA|
"G"G2D2 G3A|B2d2 "Em"e4|"G"d2B2 "D"A2BA|"G"G4 G4:|
|:"G"g2f2 "Em"e2d2|e2f2 g3e|"G"d2B2 BAGA|B2A2 "D"A4|
"G"g2f2"Em"e2d2|e2f2 g3e|"G"d2B2"D"A2BA|"G"G4 G4:|

